dist/images/basket.svg

<svg width="20" height="20" fill="none" xmlns="http://www.w3.org/2000/svg"><path d="M6 16c-1.1 0-1.99.9-1.99 2S4.9 20 6 20s2-.9 2-2-.9-2-2-2zM0 0v2h2l3.6 7.59-1.35 2.45c-.16.28-.25.61-.25.96 0 1.1.9 2 2 2h12v-2H6.42c-.14 0-.25-.11-.25-.25l.03-.12.9-1.63h7.45c.75 0 1.41-.41 1.75-1.03l3.58-6.49A1.003 1.003 0 0019 2H4.21l-.94-2H0zm16 16c-1.1 0-1.99.9-1.99 2s.89 2 1.99 2 2-.9 2-2-.9-2-2-2z" fill="#0094FF"/></svg>

<svg width="20" height="20" viewBox="0 0 20 20" fill="none" xmlns="http://www.w3.org/2000/svg">
<path d="M6 16C4.9 16 4.01 16.9 4.01 18C4.01 19.1 4.9 20 6 20C7.1 20 8 19.1 8 18C8 16.9 7.1 16 6 16ZM0 0V2H2L5.6 9.59L4.25 12.04C4.09 12.32 4 12.65 4 13C4 14.1 4.9 15 6 15H18V13H6.42C6.28 13 6.17 12.89 6.17 12.75L6.2 12.63L7.1 11H14.55C15.3 11 15.96 10.59 16.3 9.97L19.88 3.48C19.96 3.34 20 3.17 20 3C20 2.45 19.55 2 19 2H4.21L3.27 0H0ZM16 16C14.9 16 14.01 16.9 14.01 18C14.01 19.1 14.9 20 16 20C17.1 20 18 19.1 18 18C18 16.9 17.1 16 16 16Z" fill="#0094FF"/>
</svg>
